X: 911
T: Gözümde Dâim Hayâl-i Cânâ
C: Dede Efendi
O: Turkey
F: http://compmusic.upf.edu/node/140
N: rast--kar-i_nev--agirduyek--gozumde_daim--dede_efendi
N: makam= rast
N: form= kar-i_nev
N: usul= agirduyek = 8/4
M: 8/4
L: 1/16
K: C _1/4B ^f  
Q: 1/4=108
%%MIDI tuningsystem comma53
G4 G8 A4  | B6 G2 c6 B2  | B2 c2 B2 A2 A8  | \
w:  Gö züm de   |  dâ  |  im   | 
A8 z8  | G4 d8 d4  | d8 ^3/4c2 d2 {f}e2 d2  | 
w:   |  ha yâl_ i   |  câ  | 
^3/4c4 {e}d12  | d8 z8  | d2 c2 e2 c2 c2 B2 d2 B2  | \
w:  nâ    |   |  Ah   | 
B2 A2 c2 A2 A2 G2 B2 A2  | B3A G12  | 
w:   |   | 
G8 z8  | G4 e8 d4  | d2 c4 B^3/4A B8  | \
w:   |  gö nül de   |  her   | 
d8 ^3/4c6 =Bc  | d8 ^3/4c6 =Bc  | d16  | \
w:  dem   |   |   | 
d8 z8  | 
w:   | 
G4 c8 B4  | A8 ^3/4G2 A2 =B2 A2  | ^G4 {=B}A12  | \
w:  ce mâl_ i   |  câ  |  nâ    | 
A8 z8  | z4 G8 B4  | A2 G2 A2 F2 D6 z2  | 
w:   |  Hey   |  câ *  *  *  nım   | 
z4 c8 B4  | B6 A2 ^3/4G2 A2 =B2 A2  | \
w:  hey   |  öm *  rüm   | 
^3/4G4 {=B}A12  | A8 z8  | G2 {c}B2 A2 B2 G2 B2 A2 B2  | 
w:  hey   |   |  hey   | 
G8 D4 E2 F2  | G16  | G8 z8  | G6 z2 D2 G4 G2  | \
w:  *  hey    |   |   |  Ah  ey  *  pe  | 
G8 G8  | G2 B4 A2 G6 F2  | A6 G2 B6 AG  | 
w:  rî  rû   |  dil *  *  *  ber_  |  i  *  râ  | 
{A}G8 G6 A2  | B6 G2 c2 Bc {e}d2 cB  | \
w:  *  *  nâ  ci  |  vân_ *  ı   | 
A8 ^3/4G2 A2 =B2 A2  | A8 z8  | G6 z2 D2 G4 G2  | 
w:  nâ *  *  *  ze  |  nîn    |  Ah  gam  *  be  | 
G6 A2 B8  | B2 A2 B2 A2 B2 A2 B2 G2  | \
w:  nim  *  şâ  |  dî  *  *  *  *  *  *  se  | 
c6 B2 B2 c2 B2 A2  | A8 A6 GF  | 
w:  nin   *  Hic  |  *  rân  be  | 
E8 B2 c2 d2 c2  | B6 G2 A6 F2  | G6 B2 A6 GF  | \
w:  nim  dev  |  rân  *  *  se  |  nin   *  Yâr  be  | 
E8 B2 c2 d2 c2  | B6 G2 A6 F2  | 
w:  nim  dev  |  rân  *  *  se  | 
G8 F2 G2 A2 G2  | G12 z4  | G6 d2 d8  | \
w:  nin    |   |  Ey  *  şâh_  | 
d2 ^3/4c2 d4 d2 G2 F2 G2  | A6 G2 B6 A2  | 
w:  *  *  *  *  ı  *  ci  |  hân   | 
A3G G3F F3E D4  | e2 =f2 e2 d2 f3e d2 e2  | \
w:   |  ey  *  *  *  dil  | 
d2 ^c2 d6 G2 F2 G2  | 
w:  *  *  *  de  *  ni  | 
A8 ^3/4G2 A2 =B2 A2  | A8 z4 z2 D2  | \
w:  hân    |  *  Se  | 
G6 G2 G6 B2  | c6 B2 B2 A2 {c}B2 A2  | \
w:  nin  gi bi  gü  |  zel  e fen  | 
G6 d2 d2 ^3/4c2 d4  | 
w:  dim  *  var    | 
z2 G4 A2 B2 A2 G2 F2  | G6 B2 A6 GF  | \
w:  Var  *  *  *  *  be  |  nim  *  yâr   | 
E6 z2 B2 c2 d2 c2  | B6 G2 A6 F2  | 
w:  *  yâr   |  var  *  *  be  | 
G8 F2 G2 A2 G2  | G16  | G8 z8  | z12  | G4B2 A2B2c2  | \
w:  nim    |   |   |  |  Gül   | 
d2c2B2 A2G2g2  | g4=fe e4d2  | 
w:  yüz  |  lü  *  *  mâ  | 
d2e2c2 B2d4  | d2e2c2 c2d2B2  | B2c2A2 G2B4  | \
w:  hım    |  Rahm_  |  ey  | 
A4G2 F2G2A2  | 
w:  le  *  şâ  | 
G2A2B2 c2.d4  | d2e2c2 c2d2B2  | B2c2A2 G2B4  | \
w:  hım    |  Rahm_  |  ey  | 
A4G2 F2G2A2  | 
w:  le  *  şâ  | 
G6 g6  | g6 f6  | e6 d4z2  | d6 ^3/4c2d2e2  | \
w:  hım   SAZ  |  Çeşm_  |  i   |  si yâ  | 
d2e2f2 g2.a4  | g6 f6  | e6 d4z2  | 
w:  hım    |  Çeşm_  |  i   | 
d6 ^3/4c2d2e2  | d2c2B2 A2G2d2  | d2e2c2 c2d2B2  | \
w:  si yâ  |  hım    |  Â  | 
B2c2A2 G2B4  | 
w:  lem  | 
A4G2 F2G2A2  | G2A2B2 c2.d4  | d2e2c2 c2d2B2  | \
w:  de  *  bir  |  sin    |  Â  | 
B2c2A2 G2B4  | 
w:  lem  | 
A4G2 F2G2A2  | G12  | |


